X:1
T:At the Battle’s Front
T:At the Battle’s Front
T:Lelia Naylor Morris
T:Lelia Naylor Morris, 1906
T:Public Domain Courtesy of the Cyber Hymnal™
T:Public Domain Courtesy of the Cyber Hymnal™
C:Lelia Naylor Morris
Z:Public Domain
Z:Courtesy of the Cyber Hymnal™
%%score ( 1 2 ) ( 3 4 )
L:1/8
Q:1/4=95
M:4/4
K:F
V:1 treble 
V:2 treble 
V:3 bass 
V:4 bass 
V:1
 [FA][FB] | [Fc]2 [CF]>[CF] [CF]2 [FB][FA] | [DG][B,D] [B,D]>[B,D] [B,D]2 [DG][DA] | %3
w: 1.~I’ve en-|list- ed for life in the|ar- my of the Lord, Tho’ the|
w: 2.~With the|ban- ner of love and of|ho- li- ness un- furled, Full sal-|
w: 3.~Is your|name, friend, en- rolled with the|loy- al ones and true? Will you|
 [DB]2 [CE]>[CE] [CE]2 [CF][EG] | [FA][CF][CF][B,D] [A,C]2 [FA][GB] | %5
w: fight may be long and the|strug- gle fierce and hard; With the|
w: va- tion pro- claim to a|sin- ful, dy- ing world; Tho’ the|
w: dare now to stand with the|Sav- ior’s faith- ful few? Will you|
 [Ac]2 [CF]>[CF] [CF]2 [FB][FA] | [FG][Fd][Fd][Fd] [Fd]2 [GB][DG] | %7
w: ar- mor of God and the|Spir- it’s trust- y sword, At the|
w: darts thick and fast from the|en- e- my be hurled, At the|
w: join with me now and the|cov- e- nant re- new? At the|
 [CF]2 [Ac]>[Bd] [Ac][FA][CF][FA] | [EG]4 !fermata![CF]2 ||"^Refrain" [Ac]>[GB] | %10
w: front of the bat- tle you will|find me.||
w: front of the bat- tle you will|find me.|Hear the|
w: front of the bat- tle you will|find me.||
 .[FA]2 .[FA]2 .[FA]>[FG] F>[Bd] | [Ac]4 [FA]>[Ac] [Bd]>[Ac] | [GB]2 [EG]7/2 [Bd]/ [ce]>[Bd] | %13
w: |||
w: tramp! tramp! tramp- ing of the|ar- my, The tri- umph|shout- ing, the foe we’re|
w: |||
 [Ac]2 [FA]4 [Ac]>[GB] | [FA]2 [FA]2 [FA]>[FG] F>[Bd] | [Ac]4 [FA]2 [Af]>[Af] | %16
w: |||
w: rout- ing; Hear the|tramp! tramp! tramp- ing of the|ar- my, March- ing|
w: |||
 [Ge]2 [Gd]2 [Gc]2 [G=B]2 | [Gc]4- [Gc]>[GB] [FA]>[GB] | [Ac]2 [Ac]7/2 [FA]/ [GB]>[Ac] | %19
w: |||
w: on to vic- to-|ry. * I’m in this|ar- my, this glor- ious|
w: |||
 [Bd]2 [Bd]4 [GB]>[FA] | [FG]2 ([EG][FA]) [GB]>[Bd] [Ac]>[GB] | A7/2 d/ [Fc]>[GB] [FA]>[GB] | %22
w: |||
w: ar- my, And the|God of * bat- tles will de-|fend me, I’m in the ar-|
w: |||
 [Ac]2 [Ac]7/2 [FA]/ [GB]>[Ac] | [Bd]2 !fermata![df]4 [df]>[Bd] | [Ac]2 [Ac]>[Bd] [Ac][FA]F[FA] | %25
w: |||
w: my, this glor- ious ar-|my, At the front|of the bat- tle you will find|
w: |||
 G4 !fermata![CF]2 |] %26
w: |
w: me. *|
w: |
V:2
 x2 | x8 | x8 | x8 | x8 | x8 | x8 | x8 | x6 || x2 | x6 F3/2 x/ | x8 | x8 | x8 | x6 F3/2 x/ | x8 | %16
 x8 | x8 | x8 | x8 | x8 | F4 x4 | x8 | x8 | x6 F x | (E2 C2) x2 |] %26
V:3
 F,[F,G,] | [F,A,]2 [F,A,]>[F,A,] [F,A,]2 [F,D][F,C] | %2
w: ~ ~|~ ~ ~ ~ ~ ~|
 [B,,B,][B,,F,] [B,,F,]>[B,,F,] [B,,F,]2 [B,,F,][A,,^F,] | %3
w: ~ ~ ~ ~ ~ ~ ~|
 [G,,G,]2 [C,G,]>[C,G,] [C,G,]2 [C,A,][C,B,] | [F,C][F,A,][F,A,]F, F,2 [F,C][F,C] | %5
w: ~ ~ ~ ~ ~ ~|~ ~ ~ ~ ~ ~ ~|
 [F,F]2 [F,A,]>[F,A,] [F,A,]2 [F,D][F,C] | [B,D][G,B,][G,B,][G,B,] [G,B,]2 [B,,D][B,,B,] | %7
w: ~ ~ ~ ~ ~ ~|~ ~ ~ ~ ~ ~ ~|
 [C,A,]2 [C,C]>[C,C] [C,C][C,C][C,A,][C,C] | C2 B,2 !fermata![F,A,]2 || z2 | %10
w: ~ ~ ~ ~ ~ ~ ~|~ ~ ~||
 .[F,C]2 .[C,C]2 .[F,C]2 z2 | .[F,C]2 .[C,C]2 .[F,C]2 z2 | .[E,C]2 .[C,C]2 .[E,C]2 z2 | %13
w: Tramp! tramp! tramp!|tramp! tramp! tramp!|tramp! tramp! tramp!|
 .[F,C]2 .[C,C]2 .[F,C]2 z2 | .[F,C]2 .[C,C]2 .[F,C]2 z2 | .[F,C]2 .[C,C]2 .[F,C]2 [F,C]>[F,C] | %16
w: tramp! tramp! tramp!|tramp! tramp! tramp!|tramp! tramp! tramp! ~ ~|
 [G,C]2 [G,F]2 [G,E]2 (DF) | E4- E3/2 z/ z/ x3/2 | .[F,C]2 .[C,C]2 .[F,C]2 z2 | %19
w: ~ ~ hal- le- *|lu- *|tramp! tramp! tramp!|
 .[G,D]2 .[D,D]2 .[G,D]2 [G,D]>[A,C] | [B,C]2 [C,C]2 [C,C]>[C,C] [C,C]>[C,C] | %21
w: tramp! tramp! tramp! ~ ~|~ ~ ~ ~ ~ ~|
 C7/2 B,/ [F,A,]2 z2 | .[F,C]2 .[C,C]2 .[F,C]2 z2 | %23
w: ~ ~ ~|~ ~ ~|
 .[B,,B,]2 .[B,,F,]2 .!fermata![B,,B,]2 [B,,B,]>[B,,F,] | %24
w: tramp! tramp! tramp! tramp! tramp!|
 [C,F,]2 [C,C]>[C,C] [C,C][C,C][C,A,][C,C] | [C,B,]4 !fermata![F,A,]2 |] %26
w: tramp! * * * * * *||
V:4
 F, x | x8 | x8 | x8 | x3 F, F,2 x2 | x8 | x8 | x8 | C,4 x2 || x2 | x8 | x8 | x8 | x8 | x8 | x8 | %16
w: ||||||||||||||||
 x6 G,2 | C,2 C>D (CB,) (A,G,) | x8 | x8 | x8 | F,4 x4 | x8 | x8 | x8 | x6 |] %26
w: |* * * jah! * * *|||||||||

